packages/dnb-ui-lib/assets/icons/document_signing.svg

<svg width="16" height="16" viewBox="0 0 16 16" fill="none" xmlns="http://www.w3.org/2000/svg">
<path d="M14.2953 9.7272L13.7653 9.19645L13.7649 9.19687L14.2953 9.7272ZM9.49436 14.5281L9.64145 15.2635C9.78664 15.2345 9.91999 15.1631 10.0247 15.0584L9.49436 14.5281ZM7.13482 15L6.39938 14.8529C6.3502 15.0988 6.42717 15.353 6.60449 15.5303C6.78181 15.7076 7.03601 15.7846 7.28191 15.7354L7.13482 15ZM7.60673 12.6405L7.0764 12.1101C6.9717 12.2148 6.90033 12.3482 6.87129 12.4934L7.60673 12.6405ZM12.4076 7.83956L12.9379 8.36989L12.9384 8.36948L12.4076 7.83956ZM14.2902 7.83956L13.7595 8.36948L13.7599 8.36986L14.2902 7.83956ZM14.5841 8.27639L13.8913 8.56367L14.5841 8.27639ZM13.5073 10.5151L14.0377 11.0455H14.0377L13.5073 10.5151ZM10.7181 4.98526C10.9861 5.30109 11.4594 5.33986 11.7753 5.07186C12.0911 4.80385 12.1299 4.33057 11.8619 4.01474L10.7181 4.98526ZM4 15.5927C4.41421 15.5927 4.75 15.2569 4.75 14.8427C4.75 14.4285 4.41421 14.0927 4 14.0927V15.5927ZM2 1.00001L2 1.75001L2 1.00001ZM7.85706 1L7.85706 1.75L7.85706 1ZM8.61953 1.35298L8.04768 1.83825L8.61953 1.35298ZM9.34728 13.7927L6.98773 14.2646L7.28191 15.7354L9.64145 15.2635L9.34728 13.7927ZM7.87025 15.1471L8.34216 12.7875L6.87129 12.4934L6.39938 14.8529L7.87025 15.1471ZM12.9384 8.36948C12.9922 8.31551 13.0562 8.27269 13.1267 8.24348L12.5521 6.85789C12.2995 6.96263 12.0701 7.11614 11.8769 7.30965L12.9384 8.36948ZM13.1267 8.24348C13.1971 8.21427 13.2727 8.19923 13.3489 8.19923V6.69923C13.0755 6.69923 12.8047 6.75315 12.5521 6.85789L13.1267 8.24348ZM13.3489 8.19923C13.4252 8.19923 13.5007 8.21427 13.5711 8.24348L14.1457 6.85789C13.8931 6.75315 13.6224 6.69923 13.3489 6.69923V8.19923ZM13.5711 8.24348C13.6416 8.27269 13.7056 8.31551 13.7595 8.36948L14.821 7.30965C14.6278 7.11614 14.3983 6.96263 14.1457 6.85789L13.5711 8.24348ZM13.8913 8.56367C13.9206 8.63412 13.9356 8.70963 13.9356 8.7859H15.4356C15.4356 8.51246 15.3817 8.24169 15.2769 7.9891L13.8913 8.56367ZM13.9356 8.7859C13.9356 8.86216 13.9206 8.93768 13.8913 9.00813L15.2769 9.5827C15.3817 9.33011 15.4356 9.05934 15.4356 8.7859H13.9356ZM13.8913 9.00813C13.8621 9.07857 13.8193 9.14257 13.7653 9.19645L14.8252 10.2579C15.0187 10.0647 15.1722 9.83529 15.2769 9.5827L13.8913 9.00813ZM13.7599 8.36986C13.8189 8.42894 13.8629 8.49501 13.8913 8.56367L15.2769 7.9891C15.1695 7.73011 15.012 7.50076 14.8206 7.30927L13.7599 8.36986ZM1.75 13.8427V2.00001H0.25V13.8427H1.75ZM2 1.75001L7.85706 1.75L7.85705 0.250001L2 0.250008L2 1.75001ZM8.13706 13.1708L12.15 9.15783L11.0894 8.09717L7.0764 12.1101L8.13706 13.1708ZM12.977 9.9848L8.96403 13.9978L10.0247 15.0584L14.0377 11.0455L12.977 9.9848ZM11.0894 9.15783L12.977 11.0455L14.0377 9.9848L12.15 8.09717L11.0894 9.15783ZM13.7649 9.19687L12.977 9.9848L14.0377 11.0455L14.8256 10.2575L13.7649 9.19687ZM12.15 9.15783L12.9379 8.36989L11.8773 7.30923L11.0894 8.09717L12.15 9.15783ZM8.04768 1.83825L10.7181 4.98526L11.8619 4.01474L9.19139 0.867723L8.04768 1.83825ZM2 15.5927H4V14.0927H2V15.5927ZM1.75 2.00001C1.75 1.86194 1.86193 1.75001 2 1.75001L2 0.250008C1.0335 0.250009 0.25 1.03351 0.25 2.00001H1.75ZM0.25 13.8427C0.25 14.8092 1.0335 15.5927 2 15.5927V14.0927C1.86193 14.0927 1.75 13.9807 1.75 13.8427H0.25ZM7.85706 1.75C7.93047 1.75 8.00017 1.78227 8.04768 1.83825L9.19139 0.867723C8.85889 0.475884 8.37096 0.25 7.85705 0.250001L7.85706 1.75Z" fill="black"/>
</svg>

<svg width="16" height="16" viewBox="0 0 16 16" fill="none" xmlns="http://www.w3.org/2000/svg"><path d="M14.295 9.727l-.53-.53.53.53zm-4.8 4.801l.146.736a.75.75 0 00.384-.206l-.53-.53zM7.134 15l-.736-.147a.75.75 0 00.883.882L7.135 15zm.472-2.36l-.53-.53a.75.75 0 00-.206.383l.736.147zm4.8-4.8l.53.53h.001l-.53-.53zm1.883 0l-.53.53.53-.53zm.294.436l-.693.288.693-.288zm-1.077 2.24l.53.53-.53-.53zm-2.789-5.53a.75.75 0 001.144-.971l-1.144.97zM4 15.592a.75.75 0 000-1.5v1.5zM2 1v.75V1zm5.857 0v.75V1zm.763.353l-.572.485.572-.485zm.727 12.44l-2.36.472.295 1.47 2.36-.471-.295-1.471zM7.87 15.147l.472-2.36-1.47-.294-.473 2.36 1.471.294zm5.068-6.778a.579.579 0 01.189-.126l-.575-1.385a2.08 2.08 0 00-.675.452l1.061 1.06zm.189-.126a.58.58 0 01.222-.044V6.7a2.08 2.08 0 00-.797.159l.575 1.385zm.222-.044a.58.58 0 01.222.044l.575-1.385a2.08 2.08 0 00-.797-.159v1.5zm.222.044a.58.58 0 01.188.126l1.062-1.06a2.08 2.08 0 00-.675-.451l-.575 1.385zm.32.32c.03.071.045.147.045.223h1.5a2.08 2.08 0 00-.16-.797l-1.385.575zm.045.223a.579.579 0 01-.045.222l1.386.575a2.08 2.08 0 00.159-.797h-1.5zm-.045.222a.58.58 0 01-.126.188l1.06 1.062a2.08 2.08 0 00.452-.675l-1.386-.575zm-.131-.638a.6.6 0 01.131.194l1.386-.575a2.101 2.101 0 00-.456-.68L13.76 8.37zM1.75 13.843V2H.25v11.843h1.5zM2 1.75h5.857V.25H2v1.5zm6.137 11.42l4.013-4.012-1.06-1.06-4.014 4.012 1.061 1.06zm4.84-3.185l-4.013 4.013 1.06 1.06 4.014-4.012-1.061-1.061zm-1.888-.827l1.888 1.888 1.06-1.061-1.887-1.888-1.06 1.06zm2.676.039l-.788.788 1.06 1.06.789-.787-1.061-1.061zm-1.615-.04l.788-.787-1.06-1.06-.789.787 1.061 1.06zM8.048 1.839l2.67 3.147 1.144-.97L9.192.868l-1.144.97zM2 15.593h2v-1.5H2v1.5zM1.75 2A.25.25 0 012 1.75V.25A1.75 1.75 0 00.25 2h1.5zM.25 13.843c0 .966.784 1.75 1.75 1.75v-1.5a.25.25 0 01-.25-.25H.25zM7.857 1.75a.25.25 0 01.19.088l1.144-.97A1.75 1.75 0 007.857.25v1.5z" fill="#000"/></svg>
